X:6
T:Keep it up
M:6/8
L:1/8
B:Thompson's Compleat Collection of 200 Favourite Country Dances, vol. 1 (London, 1757)
Z:Transcribed and edited by Fynnian Titford-Mock, 2007
Z:abc's:AK/Fiddler's Companion
K:A
a2A agf|efd c3|e2E edc|BAG A3|a2A agf|gfe B2a|gfe "tr"f3|(e3 e3):|
|:f2F fed|cB^A B3|e2E edc|BAG A3|cA(e e)dc|dBf fed|cBA B3|(A3 A3):|

